X: 162038
T: Paddy Fahy's Hornpipe
S: Treoir 37/2
L: 1/8
M: 4/4
R: hornpipe
Q: 1/4 = 160
K: G
B,A, | G,B,DG BAGF | ECCB, CEGc | (3Bcd gd ^cdDd | cBAG (3FED (3CB,A, |
G,B,DG BAGF | ECCB, CEGc | (3Bcd gd ^cdDF | (3ABA GF G2 :|
Bc | dggf gdBd | (3cBA egfg (3agf | gdBd ecAG | Fdd^c ded=c |
(3Bcd BG cBcA | (3Bcd fa gfdc | (3Bcd gd ^cdDF | (3ABA GF G2 :|
